safe.svg

<svg  viewBox="0 0 24 24" fill="currentColor"><path  d="M4,4A2,2 0 0,0 2,6V17A2,2 0 0,0 4,19V20H6V19H17V20H19V19A2,2 0 0,0 21,17V16H22V14H21V9H22V7H21V6A2,2 0 0,0 19,4H4M4,6H19V17H4V6M13.5,7.5A4,4 0 0,0 9.5,11.5A4,4 0 0,0 13.5,15.5A4,4 0 0,0 17.5,11.5A4,4 0 0,0 13.5,7.5M5,9V14H7V9H5M13.5,9.5A2,2 0 0,1 15.5,11.5A2,2 0 0,1 13.5,13.5A2,2 0 0,1 11.5,11.5A2,2 0 0,1 13.5,9.5Z"/></svg>

<svg fill="currentColor" viewBox="0 0 24 24"><path d="M4 4a2 2 0 0 0-2 2v11a2 2 0 0 0 2 2v1h2v-1h11v1h2v-1a2 2 0 0 0 2-2v-1h1v-2h-1V9h1V7h-1V6a2 2 0 0 0-2-2zm0 2h15v11H4zm9.5 1.5a4 4 0 0 0-4 4 4 4 0 0 0 4 4 4 4 0 0 0 4-4 4 4 0 0 0-4-4M5 9v5h2V9zm8.5.5a2 2 0 0 1 2 2 2 2 0 0 1-2 2 2 2 0 0 1-2-2 2 2 0 0 1 2-2"/></svg>
